X: 40715
T: Toss The Feathers
R: reel
M: 4/4
K: Dmixolydian
D2AD EDAD|D2AG EAGE|D2AD EGAB|cded cAGE|
D2AD EDAD|D2AG EAGE|D2AD EGAB|cAGE EDD2||
Add^c d2cd|ed^cd edd2|eaag ed^cd|ed^cd edd2|
eaag efge|dfed cAGE|D2AD EGAB|cded cAGE||

